src/assets/images/googleplay.svg

<svg width="220" height="64" viewBox="0 0 220 64" fill="none" xmlns="http://www.w3.org/2000/svg">
<path d="M211.852 63.6431H8.14815C3.6687 63.6431 0 60.0612 0 55.6877V7.95542C0 3.58195 3.6687 3.73265e-05 8.14815 3.73265e-05H211.852C216.331 3.73265e-05 220 3.58195 220 7.95542V55.6877C220 60.0612 216.331 63.6431 211.852 63.6431Z" fill="black"/>
<path d="M211.852 1.27488C215.624 1.27488 218.694 4.27207 218.694 7.95542V55.6877C218.694 59.371 215.624 62.3682 211.852 62.3682H8.14815C4.37556 62.3682 1.30574 59.371 1.30574 55.6877V7.95542C1.30574 4.27207 4.37556 1.27488 8.14815 1.27488H211.852ZM211.852 3.73265e-05H8.14815C3.6687 3.73265e-05 0 3.58195 0 7.95542V55.6877C0 60.0612 3.6687 63.6431 8.14815 63.6431H211.852C216.331 63.6431 220 60.0612 220 55.6877V7.95542C220 3.58195 216.331 3.73265e-05 211.852 3.73265e-05Z" fill="#A6A6A6"/>
<path d="M77.273 16.2982C77.273 17.6268 76.8655 18.6908 76.063 19.4843C75.1402 20.4251 73.9383 20.8984 72.4656 20.8984C71.058 20.8984 69.8561 20.4171 68.8702 19.4684C67.8822 18.5058 67.3893 17.3245 67.3893 15.9104C67.3893 14.4963 67.8822 13.3149 68.8702 12.3603C69.8561 11.4037 71.058 10.9224 72.4656 10.9224C73.1663 10.9224 73.8344 11.0636 74.472 11.3261C75.1076 11.5906 75.625 11.9486 75.9998 12.3901L75.1483 13.2294C74.4944 12.4757 73.6043 12.1037 72.4656 12.1037C71.4389 12.1037 70.5487 12.4538 69.793 13.1598C69.0454 13.8678 68.6705 14.7847 68.6705 15.9104C68.6705 17.0361 69.0454 17.9609 69.793 18.6689C70.5487 19.367 71.4389 19.725 72.4656 19.725C73.5554 19.725 74.472 19.367 75.1952 18.661C75.6718 18.1936 75.9428 17.5492 76.0141 16.7258H72.4656V15.5763H77.1996C77.2567 15.8249 77.273 16.0655 77.273 16.2982Z" fill="white" stroke="white" stroke-width="0.16" stroke-miterlimit="10"/>
<path d="M84.7835 12.3125H80.3366V15.3356H84.3455V16.4851H80.3366V19.5082H84.7835V20.6796H79.0778V11.1411H84.7835V12.3125Z" fill="white" stroke="white" stroke-width="0.16" stroke-miterlimit="10"/>
<path d="M90.0839 20.6796H88.825V12.3125H86.0974V11.1411H92.8135V12.3125H90.0839V20.6796Z" fill="white" stroke="white" stroke-width="0.16" stroke-miterlimit="10"/>
<path d="M97.6739 20.6796V11.1411H98.9307V20.6796H97.6739Z" fill="white" stroke="white" stroke-width="0.16" stroke-miterlimit="10"/>
<path d="M104.502 20.6796H103.253V12.3125H100.516V11.1411H107.24V12.3125H104.502V20.6796Z" fill="white" stroke="white" stroke-width="0.16" stroke-miterlimit="10"/>
<path d="M119.955 19.4525C118.991 20.4171 117.798 20.8984 116.374 20.8984C114.942 20.8984 113.748 20.4171 112.785 19.4525C111.823 18.4899 111.344 17.3085 111.344 15.9104C111.344 14.5122 111.823 13.3309 112.785 12.3683C113.748 11.4037 114.942 10.9224 116.374 10.9224C117.79 10.9224 118.983 11.4037 119.947 12.3762C120.916 13.3468 121.395 14.5202 121.395 15.9104C121.395 17.3085 120.916 18.4899 119.955 19.4525ZM113.716 18.653C114.441 19.367 115.323 19.725 116.374 19.725C117.417 19.725 118.307 19.367 119.024 18.653C119.747 17.939 120.114 17.0221 120.114 15.9104C120.114 14.7986 119.747 13.8818 119.024 13.1678C118.307 12.4538 117.417 12.0958 116.374 12.0958C115.323 12.0958 114.441 12.4538 113.716 13.1678C112.992 13.8818 112.626 14.7986 112.626 15.9104C112.626 17.0221 112.992 17.939 113.716 18.653Z" fill="white" stroke="white" stroke-width="0.16" stroke-miterlimit="10"/>
<path d="M123.161 20.6796V11.1411H124.689L129.439 18.5595H129.494L129.439 16.7258V11.1411H130.696V20.6796H129.384L124.41 12.8953H124.355L124.41 14.7369V20.6796H123.161Z" fill="white" stroke="white" stroke-width="0.16" stroke-miterlimit="10"/>
<path d="M111.035 34.6102C107.207 34.6102 104.08 37.4543 104.08 41.3782C104.08 45.2704 107.207 48.1443 111.035 48.1443C114.871 48.1443 117.997 45.2704 117.997 41.3782C117.997 37.4543 114.871 34.6102 111.035 34.6102ZM111.035 45.4792C108.935 45.4792 107.128 43.7867 107.128 41.3782C107.128 38.9379 108.935 37.2753 111.035 37.2753C113.135 37.2753 114.95 38.9379 114.95 41.3782C114.95 43.7867 113.135 45.4792 111.035 45.4792ZM95.8609 34.6102C92.0251 34.6102 88.9064 37.4543 88.9064 41.3782C88.9064 45.2704 92.0251 48.1443 95.8609 48.1443C99.6946 48.1443 102.815 45.2704 102.815 41.3782C102.815 37.4543 99.6946 34.6102 95.8609 34.6102ZM95.8609 45.4792C93.7587 45.4792 91.9457 43.7867 91.9457 41.3782C91.9457 38.9379 93.7587 37.2753 95.8609 37.2753C97.9611 37.2753 99.7679 38.9379 99.7679 41.3782C99.7679 43.7867 97.9611 45.4792 95.8609 45.4792ZM77.8046 36.6846V39.5604H84.8385C84.6327 41.1674 84.0827 42.3488 83.2394 43.1722C82.2127 44.1666 80.6137 45.2704 77.8046 45.2704C73.4759 45.2704 70.0863 41.8595 70.0863 37.6333C70.0863 33.407 73.4759 29.9961 77.8046 29.9961C80.1452 29.9961 81.8481 30.8891 83.105 32.0466L85.1807 30.02C83.4227 28.3811 81.0842 27.1222 77.8046 27.1222C71.8687 27.1222 66.88 31.8378 66.88 37.6333C66.88 43.4287 71.8687 48.1443 77.8046 48.1443C81.0129 48.1443 83.4227 47.1181 85.3172 45.1928C87.2585 43.2975 87.8635 40.6324 87.8635 38.4805C87.8635 37.8122 87.8064 37.1977 87.7046 36.6846H77.8046ZM151.639 38.9141C151.067 37.4006 149.301 34.6102 145.703 34.6102C142.138 34.6102 139.17 37.3528 139.17 41.3782C139.17 45.169 142.108 48.1443 146.045 48.1443C149.229 48.1443 151.067 46.2489 151.822 45.1451L149.459 43.6077C148.671 44.7334 147.598 45.4792 146.045 45.4792C144.503 45.4792 143.397 44.7891 142.688 43.4287L151.959 39.6837L151.639 38.9141ZM142.187 41.1674C142.108 38.5581 144.263 37.2216 145.807 37.2216C147.017 37.2216 148.044 37.8122 148.386 38.6575L142.187 41.1674ZM134.652 47.7326H137.7V27.8442H134.652V47.7326ZM129.661 36.1178H129.56C128.875 35.3262 127.569 34.6102 125.915 34.6102C122.444 34.6102 119.271 37.5855 119.271 41.4001C119.271 45.1928 122.444 48.1443 125.915 48.1443C127.569 48.1443 128.875 47.4223 129.56 46.6069H129.661V47.5775C129.661 50.165 128.246 51.5552 125.962 51.5552C124.1 51.5552 122.945 50.2425 122.469 49.1387L119.818 50.2187C120.582 52.0126 122.605 54.2202 125.962 54.2202C129.535 54.2202 132.55 52.1677 132.55 47.1737V35.0219H129.661V36.1178ZM126.176 45.4792C124.076 45.4792 122.318 43.7629 122.318 41.4001C122.318 39.0155 124.076 37.2753 126.176 37.2753C128.246 37.2753 129.877 39.0155 129.877 41.4001C129.877 43.7629 128.246 45.4792 126.176 45.4792ZM165.906 27.8442H158.618V47.7326H161.657V40.1969H165.906C169.282 40.1969 172.592 37.8122 172.592 34.0195C172.592 30.2288 169.274 27.8442 165.906 27.8442ZM165.986 37.4304H161.657V30.6106H165.986C168.255 30.6106 169.551 32.4503 169.551 34.0195C169.551 35.5589 168.255 37.4304 165.986 37.4304ZM184.773 34.5724C182.578 34.5724 180.294 35.5191 179.355 37.6173L182.052 38.7211C182.633 37.6173 183.7 37.2593 184.828 37.2593C186.405 37.2593 188.004 38.1842 188.029 39.817V40.0258C187.479 39.7156 186.301 39.2562 184.853 39.2562C181.948 39.2562 178.988 40.8174 178.988 43.7311C178.988 46.3961 181.368 48.1125 184.042 48.1125C186.087 48.1125 187.216 47.2115 187.925 46.1634H188.029V47.7008H190.964V40.0716C190.964 36.5454 188.267 34.5724 184.773 34.5724ZM184.407 45.4713C183.413 45.4713 182.028 44.99 182.028 43.7867C182.028 42.2474 183.755 41.6567 185.25 41.6567C186.588 41.6567 187.216 41.9451 188.029 42.3249C187.79 44.1666 186.167 45.4713 184.407 45.4713ZM201.658 35.008L198.165 43.6296H198.061L194.449 35.008H191.172L196.598 47.0564L193.502 53.7608H196.678L205.04 35.008H201.658ZM174.262 47.7326H177.31V27.8442H174.262V47.7326Z" fill="white"/>
<path d="M17.0052 11.9947C16.5265 12.484 16.2495 13.2457 16.2495 14.2322V49.4188C16.2495 50.4053 16.5265 51.167 17.0052 51.6563L17.1233 51.7637L37.3185 32.0542V31.5888L17.1233 11.8794L17.0052 11.9947Z" fill="url(#paint0_linear_51_68)"/>
<path d="M44.0428 38.627L37.3185 32.0538V31.5884L44.0509 25.0153L44.2016 25.1008L52.1746 29.53C54.45 30.7869 54.45 32.8553 52.1746 34.1202L44.2016 38.5414L44.0428 38.627Z" fill="url(#paint1_linear_51_68)"/>
<path d="M44.2017 38.5416L37.3185 31.8213L17.0052 51.656C17.7609 52.4317 18.9933 52.5252 20.3948 51.7495L44.2017 38.5416Z" fill="url(#paint2_linear_51_68)"/>
<path d="M44.2017 25.101L20.3948 11.8931C18.9933 11.1254 17.7609 11.2188 17.0052 11.9945L37.3185 31.8213L44.2017 25.101Z" fill="url(#paint3_linear_51_68)"/>
<defs>
<linearGradient id="paint0_linear_51_68" x1="35.5254" y1="49.7852" x2="8.83101" y2="22.444" gradientUnits="userSpaceOnUse">
<stop stop-color="#00A0FF"/>
<stop offset="0.0066" stop-color="#00A1FF"/>
<stop offset="0.2601" stop-color="#00BEFF"/>
<stop offset="0.5122" stop-color="#00D2FF"/>
<stop offset="0.7604" stop-color="#00DFFF"/>
<stop offset="1" stop-color="#00E3FF"/>
</linearGradient>
<linearGradient id="paint1_linear_51_68" x1="55.1375" y1="31.8189" x2="15.7055" y2="31.8189" gradientUnits="userSpaceOnUse">
<stop stop-color="#FFE000"/>
<stop offset="0.4087" stop-color="#FFBD00"/>
<stop offset="0.7754" stop-color="#FFA500"/>
<stop offset="1" stop-color="#FF9C00"/>
</linearGradient>
<linearGradient id="paint2_linear_51_68" x1="40.4588" y1="28.168" x2="4.25901" y2="-8.90895" gradientUnits="userSpaceOnUse">
<stop stop-color="#FF3A44"/>
<stop offset="1" stop-color="#C31162"/>
</linearGradient>
<linearGradient id="paint3_linear_51_68" x1="11.8919" y1="63.3625" x2="28.0567" y2="46.8061" gradientUnits="userSpaceOnUse">
<stop stop-color="#32A071"/>
<stop offset="0.0685" stop-color="#2DA771"/>
<stop offset="0.4762" stop-color="#15CF74"/>
<stop offset="0.8009" stop-color="#06E775"/>
<stop offset="1" stop-color="#00F076"/>
</linearGradient>
</defs>
</svg>

<svg xmlns="http://www.w3.org/2000/svg" width="220" height="64" fill="none"><path fill="#000" d="M211.852 63.643H8.148C3.668 63.643 0 60.061 0 55.688V7.955C0 3.582 3.669 0 8.148 0h203.704C216.331 0 220 3.582 220 7.955v47.733c0 4.373-3.669 7.955-8.148 7.955"/><path fill="#A6A6A6" d="M211.852 1.275c3.772 0 6.842 2.997 6.842 6.68v47.733c0 3.683-3.07 6.68-6.842 6.68H8.148c-3.772 0-6.842-2.997-6.842-6.68V7.955c0-3.683 3.07-6.68 6.842-6.68zm0-1.275H8.148C3.668 0 0 3.582 0 7.955v47.733c0 4.373 3.669 7.955 8.148 7.955h203.704c4.479 0 8.148-3.582 8.148-7.955V7.955C220 3.582 216.331 0 211.852 0"/><path fill="#fff" stroke="#fff" stroke-miterlimit="10" stroke-width=".16" d="M77.273 16.298c0 1.329-.407 2.393-1.21 3.186-.923.941-2.125 1.414-3.597 1.414-1.408 0-2.61-.48-3.596-1.43-.988-.962-1.48-2.143-1.48-3.558q-.001-2.12 1.48-3.55c.986-.956 2.188-1.438 3.596-1.438.7 0 1.368.142 2.006.404.636.265 1.153.623 1.528 1.064l-.852.84c-.654-.754-1.544-1.126-2.682-1.126q-1.54-.002-2.673 1.056-1.123 1.062-1.123 2.75c0 1.126.375 2.05 1.123 2.759.756.698 1.646 1.056 2.673 1.056 1.09 0 2.006-.358 2.73-1.064q.713-.7.818-1.935h-3.548v-1.15H77.2c.057.249.073.49.073.722ZM84.784 12.313h-4.447v3.023h4.008v1.15h-4.008v3.022h4.447v1.172h-5.706V11.14h5.706zM90.084 20.68h-1.259v-8.367h-2.728V11.14h6.717v1.172h-2.73zM97.674 20.68V11.14h1.257v9.539zM104.502 20.68h-1.249v-8.367h-2.737V11.14h6.724v1.172h-2.738zM119.955 19.453q-1.445 1.445-3.581 1.445-2.146.001-3.589-1.445-1.442-1.445-1.441-3.543-.001-2.098 1.441-3.542 1.443-1.446 3.589-1.446c1.416 0 2.609.482 3.573 1.454.969.97 1.448 2.144 1.448 3.534q0 2.098-1.44 3.543Zm-6.239-.8c.725.714 1.607 1.072 2.658 1.072 1.043 0 1.933-.358 2.65-1.072.723-.714 1.09-1.63 1.09-2.743 0-1.111-.367-2.028-1.09-2.742-.717-.714-1.607-1.072-2.65-1.072-1.051 0-1.933.358-2.658 1.072q-1.088 1.073-1.09 2.742c0 1.112.366 2.029 1.09 2.743ZM123.161 20.68V11.14h1.528l4.75 7.419h.055l-.055-1.834V11.14h1.257v9.539h-1.312l-4.974-7.785h-.055l.055 1.842v5.943z"/><path fill="#fff" d="M111.035 34.61c-3.828 0-6.955 2.844-6.955 6.768 0 3.892 3.127 6.766 6.955 6.766 3.836 0 6.962-2.874 6.962-6.766 0-3.924-3.126-6.768-6.962-6.768m0 10.87c-2.1 0-3.907-1.693-3.907-4.102 0-2.44 1.807-4.103 3.907-4.103s3.915 1.663 3.915 4.103c0 2.409-1.815 4.101-3.915 4.101M95.861 34.61c-3.836 0-6.955 2.844-6.955 6.768 0 3.892 3.12 6.766 6.955 6.766s6.954-2.874 6.954-6.766c0-3.924-3.12-6.768-6.954-6.768m0 10.87c-2.102 0-3.915-1.693-3.915-4.102 0-2.44 1.813-4.103 3.915-4.103 2.1 0 3.907 1.663 3.907 4.103 0 2.409-1.807 4.101-3.907 4.101m-18.056-8.795v2.875h7.033c-.205 1.607-.755 2.789-1.599 3.612-1.026.995-2.625 2.098-5.434 2.098-4.33 0-7.719-3.41-7.719-7.637s3.39-7.637 7.719-7.637c2.34 0 4.043.893 5.3 2.05l2.076-2.026c-1.758-1.639-4.097-2.898-7.376-2.898-5.936 0-10.925 4.716-10.925 10.511 0 5.796 4.989 10.511 10.925 10.511 3.208 0 5.618-1.026 7.512-2.951 1.942-1.895 2.547-4.56 2.547-6.712 0-.669-.058-1.283-.16-1.796zm73.834 2.23c-.572-1.514-2.338-4.305-5.936-4.305-3.565 0-6.533 2.743-6.533 6.768 0 3.791 2.938 6.766 6.875 6.766 3.184 0 5.022-1.895 5.777-2.999l-2.363-1.537c-.788 1.125-1.861 1.871-3.414 1.871-1.542 0-2.648-.69-3.357-2.05l9.271-3.745zm-9.452 2.252a3.754 3.754 0 0 1 3.62-3.945c1.21 0 2.237.59 2.579 1.435zm-7.535 6.566h3.048V27.844h-3.048zm-4.991-11.615h-.101c-.685-.792-1.991-1.508-3.645-1.508-3.471 0-6.644 2.976-6.644 6.79 0 3.793 3.173 6.744 6.644 6.744 1.654 0 2.96-.722 3.645-1.537h.101v.97c0 2.588-1.415 3.978-3.699 3.978-1.862 0-3.017-1.312-3.493-2.416l-2.651 1.08c.764 1.794 2.787 4.001 6.144 4.001 3.573 0 6.588-2.052 6.588-7.046V35.022h-2.889zm-3.485 9.361c-2.1 0-3.858-1.716-3.858-4.079 0-2.384 1.758-4.125 3.858-4.125 2.07 0 3.701 1.74 3.701 4.125 0 2.363-1.631 4.08-3.701 4.08m39.73-17.635h-7.288v19.889h3.039v-7.536h4.249c3.376 0 6.686-2.385 6.686-6.178 0-3.79-3.318-6.175-6.686-6.175m.08 9.586h-4.329v-6.82h4.329c2.269 0 3.565 1.84 3.565 3.41 0 1.539-1.296 3.41-3.565 3.41m18.787-2.858c-2.195 0-4.479.947-5.418 3.045l2.697 1.104c.581-1.104 1.648-1.462 2.776-1.462 1.577 0 3.176.925 3.201 2.558v.209c-.55-.31-1.728-.77-3.176-.77-2.905 0-5.865 1.561-5.865 4.475 0 2.665 2.38 4.381 5.054 4.381 2.045 0 3.174-.9 3.883-1.949h.104v1.538h2.935v-7.63c0-3.526-2.697-5.499-6.191-5.499m-.366 10.9c-.994 0-2.379-.482-2.379-1.685 0-1.54 1.727-2.13 3.222-2.13 1.338 0 1.966.288 2.779.668-.239 1.842-1.862 3.146-3.622 3.146m17.251-10.464-3.493 8.622h-.104l-3.612-8.622h-3.277l5.426 12.048-3.096 6.705h3.176l8.362-18.753zm-27.396 12.725h3.048V27.844h-3.048z"/><path fill="url(#a)" d="M17.005 11.995c-.479.489-.755 1.25-.755 2.237V49.42c0 .986.276 1.748.755 2.237l.118.108 20.196-19.71v-.465l-20.196-19.71z"/><path fill="url(#b)" d="m44.043 38.627-6.724-6.573v-.466l6.732-6.573.15.086 7.974 4.429c2.275 1.257 2.275 3.325 0 4.59l-7.973 4.421z"/><path fill="url(#c)" d="m44.202 38.542-6.883-6.72-20.314 19.834c.756.776 1.988.87 3.39.093z"/><path fill="url(#d)" d="M44.202 25.101 20.395 11.893c-1.402-.768-2.634-.674-3.39.101L37.32 31.822z"/><defs><linearGradient id="a" x1="35.525" x2="8.831" y1="49.785" y2="22.444" gradientUnits="userSpaceOnUse"><stop stop-color="#00A0FF"/><stop offset=".007" stop-color="#00A1FF"/><stop offset=".26" stop-color="#00BEFF"/><stop offset=".512" stop-color="#00D2FF"/><stop offset=".76" stop-color="#00DFFF"/><stop offset="1" stop-color="#00E3FF"/></linearGradient><linearGradient id="b" x1="55.138" x2="15.706" y1="31.819" y2="31.819" gradientUnits="userSpaceOnUse"><stop stop-color="#FFE000"/><stop offset=".409" stop-color="#FFBD00"/><stop offset=".775" stop-color="orange"/><stop offset="1" stop-color="#FF9C00"/></linearGradient><linearGradient id="c" x1="40.459" x2="4.259" y1="28.168" y2="-8.909" gradientUnits="userSpaceOnUse"><stop stop-color="#FF3A44"/><stop offset="1" stop-color="#C31162"/></linearGradient><linearGradient id="d" x1="11.892" x2="28.057" y1="63.362" y2="46.806" gradientUnits="userSpaceOnUse"><stop stop-color="#32A071"/><stop offset=".069" stop-color="#2DA771"/><stop offset=".476" stop-color="#15CF74"/><stop offset=".801" stop-color="#06E775"/><stop offset="1" stop-color="#00F076"/></linearGradient></defs></svg>
